X:448
T:Grand Old MacIntyre 
C:Joe Buchanan's Scottish Tome - Page 030.0
I:030 0
R:Pipe March
Z:Carl Allison
L:1/16
M:4/4
K:A=G
ed | cABc dBcd | eaAa  {f}e2dc | ceAa  |{/e}c2B2B2 ed  |
cABc dBcd | eaAa g2 gfed | ceAa  |{/e}c2A2A2  :|
e2 | agfe fadf | eaAc {c}e2dc | ceAe ceAa | {ce} e2c2B2 e2 |
agfe fadg | eaAa gfed | ceAe deBe | {e}c2A2A2 :|
ed | cABc dBcd | ((3eee) Aa gfed | ((3ddd) Be ceAe (3ccc Aa | {cd}cBB ed |
cABc dBcd | ((3eee) Aa gfed | ceAa  |{/e}c2A2A2  :|
e2 | agfe ((3fff) df | ((3eee) Aa gfed | dfBe ((3ccc) Aa | {cd}c2B2B2 e2 |
agfe ((3fff) df | ((3eee) Aa gfed | ceAe ((3ccc) Ae | {/e}c2A2A2 :|
ed | ceAe deBe |ceac' e'c'ae | dfBd ceAa | {cd}cBB ed |
ceAe deBe |ceac' e'c'ae | ceAe deBe | {cd}c2A2A2 :|
e2 | agfe fadf |ceac' e'c'ae  | dfBd ceAa |  {cd}c2B2B2 e2 |
agfe fadf | eaAa gfed | ceAe deBe | {cd}c2A2A2 :|

